X: 38365
T: Standchen Serenade
R: reel
M: 4/4
K: Gmajor
|:BD B2 cB A2|GA BG D2 D2|cE c2 BD B2|Ad fe d>ed/ c/B/ A/|
BD B2 cB A2|GA BG D2 D2|EG ce dB GA|BD AD G2G2:|
G2 B2 dc A2|G2 B2 ge dB|ce dc Bd g2|f>f ef ad d/e/ d/c/|
G2 B2 dc A2|G2 B2 ge dB|ce dc Bd g2|Ac BA AG G2|
BD B2 cB A2|GA BG D2 D2|cE c2 BD B2|Ad fe d>ed/ c/B/ A/|
BD B2 cB A2|GA BG D2 D2|EG ce dB GA|B D>A3D> G2G2||

